!!!COM: Bach, Johann Sebastian
!!!OTL: 224. Das walt' Gott Vater und Gott Sohn
!!!ONM: No. 224
!!!OCL: Erk
!!!SCA: BWV 290
!!!YOE: Riemenschneider, Albert
!!!OPR: 371 Harmonized Chorales and 69 Chorale Melodies with Figured Bass
!!!OPT: Bach Chorale Harmonizations
**harm	**root	**kern	**kern	**kern	**kern
!	!	!bass	!tenor	!alto	!sprno
*Iorgan	*Iorgan	*Iorgan	*Iorgan	*Iorgan	*Iorgan
*k[b-]	*k[b-]	*k[b-]	*k[b-]	*k[b-]	*k[b-]
*F:	*F:	*F:	*F:	*F:	*F:
*met(c)	*met(c)	*met(c)	*met(c)	*met(c)	*met(c)
*M4/4	*M4/4	*M4/4	*M4/4	*M4/4	*M4/4
*MM60	*MM60	*MM60	*MM60	*MM60	*MM60
I	4FF	4F	4A	4c	4f
=1	=1	=1	=1	=1	=1
I	4FF	4F	4c	4f	4a
Ib	4FF	8AA	4c	4f	4cc
.	.	8BB-	.	.	.
V	4CC	4C	4G	4e	4cc
Vb/vi	4AA	4C#	4A	[4e	4a
=2	=2	=2	=2	=2	=2
vi	4DD	4D	4A	8e]	4f
.	.	.	.	8d	.
Vb	4CC	4E	4G	4c	4g
I;	4FF;	4F;	4F;	4c;	4a;
I	4FF	4F	4A	4c	4f
=3	=3	=3	=3	=3	=3
I	4FF	4.F	4A	4f	4cc
Vb	4CC	.	4c	4g	4cc
.	.	8E	.	.	.
vi	4DD	4D	4f	8a	4dd
.	.	.	.	8bn	.
iii	4AA	8A	4e	4cc	4ee
.	.	8G	.	.	.
=4	=4	=4	=4	=4	=4
I	4FF	4F	4a	4.cc	8ff
.	.	.	.	.	8ee
V/V	4GG	4G	8d	.	4dd
.	.	.	16g	8bn	.
.	.	.	16f	.	.
V;	4CC;	4C;	4e;	4g;	4cc;
Vb	4CC	4E	4c	[4g	4cc
=5	=5	=5	=5	=5	=5
!!linebreak: 2
I	4FF	4F	4c	8g]	4a
.	.	.	.	16f	.
.	.	.	.	16e	.
Ib	4FF	8AA	[4c	4f	4cc
.	.	8FF	.	.	.
IV	4BB-	4BB-	8c]	4f	4dd
.	.	.	[8B-	.	.
I	4FF	[4F	8B-]	4f	4cc
.	.	.	8A	.	.
=6	=6	=6	=6	=6	=6
V7b	4CC	8F]	4G	8g	4b-
.	.	8E	.	8c	.
I	4FF	4F	8.A	8c	4a
.	.	.	.	[8f	.
.	.	.	16B-	.	.
V;	4CC;	4C;	4c;	8f]	4g;
.	.	.	.	8e;	.
Vb	4CC	4E	4c	4g	4cc
=7	=7	=7	=7	=7	=7
I	4FF	4F	4c	4f	8a
.	.	.	.	.	8b-
Ib	4FF	4AA	4c	4f	4cc
IV	4BB-	4BB-	4d	4f	4b-
V7	4CC	4C	8c	4e	8a
.	.	.	8B-	.	8g
=8	=8	=8	=8	=8	=8
vi	4DD	4D	8A	16d	4f
.	.	.	.	16e	.
.	.	.	16G	4f	.
.	.	.	16F	.	.
V	4CC	4C	8.c	.	4g
.	.	.	.	8e	.
.	.	.	16B-	.	.
I;	4FF;	4F;	4A;	4c;	4f;
==	==	==	==	==	==
*-	*-	*-	*-	*-	*-
!!!CDT: 1685/3//-1750/7/28
!!!OCY: Deutschland
!!!AGN: chorale
!!!AST: Baroque
!!!AIN: vox
!!!YOY: 1941
!!!PPP: New York; London
!!!PPR: G. Schirmer
!!!ENC: David Huron
!!!EED: David Huron
!!!YEN: United States of America
!!!YER: 1992
!!!YEC: Copyright 1992 David Huron
!!!YEM: Rights to all derivative electronic formats reserved.
!!!YER: March 20, 1996
!!!AMT: simple quadruple
!!!EEV: 1.1
!!chor2scor: -l 2 -s 0.6 -o %b.pmx
